src/assets/icons/file-plus.svg

<svg width="14" height="14" viewBox="0 0 14 14" fill="none" xmlns="http://www.w3.org/2000/svg">
<g id="file-plus">
<path id="Vector" fill-rule="evenodd" clip-rule="evenodd" d="M3.80001 0C2.58864 0 1.60001 0.988629 1.60001 2.2V11.8C1.60001 13.0114 2.58864 14 3.80001 14H10.2C11.4114 14 12.4 13.0114 12.4 11.8V5C12.4 4.84087 12.3368 4.68826 12.2243 4.57574L7.82427 0.175736C7.71175 0.0632141 7.55914 0 7.40001 0H3.80001ZM2.80001 2.2C2.80001 1.65137 3.25138 1.2 3.80001 1.2H6.80001V5C6.80001 5.33137 7.06864 5.6 7.40001 5.6H11.2V11.8C11.2 12.3486 10.7486 12.8 10.2 12.8H3.80001C3.25138 12.8 2.80001 12.3486 2.80001 11.8V2.2ZM10.3515 4.4L8.00001 2.04853V4.4H10.3515ZM9.60001 9.4C9.60001 9.73137 9.33138 10 9.00001 10H7.60001V11.4C7.60001 11.7314 7.33138 12 7.00001 12C6.66864 12 6.40001 11.7314 6.40001 11.4V10H5.00001C4.66864 10 4.40001 9.73137 4.40001 9.4C4.40001 9.06863 4.66864 8.8 5.00001 8.8H6.40001V7.4C6.40001 7.06863 6.66864 6.8 7.00001 6.8C7.33138 6.8 7.60001 7.06863 7.60001 7.4V8.8H9.00001C9.33138 8.8 9.60001 9.06863 9.60001 9.4Z" fill="black"/>
</g>
</svg>

<svg xmlns="http://www.w3.org/2000/svg" fill="none" viewBox="0 0 14 14"><path fill="#000" fill-rule="evenodd" d="M3.8 0C2.589 0 1.6.989 1.6 2.2v9.6c0 1.211.989 2.2 2.2 2.2h6.4c1.211 0 2.2-.989 2.2-2.2V5a.6.6 0 0 0-.176-.424l-4.4-4.4A.6.6 0 0 0 7.4 0zm-1 2.2c0-.549.451-1 1-1h3V5a.6.6 0 0 0 .6.6h3.8v6.2c0 .549-.451 1-1 1H3.8c-.549 0-1-.451-1-1zm7.551 2.2L8 2.049V4.4zm-.751 5a.6.6 0 0 1-.6.6H7.6v1.4a.6.6 0 1 1-1.2 0V10H5a.6.6 0 0 1 0-1.2h1.4V7.4a.6.6 0 0 1 1.2 0v1.4H9a.6.6 0 0 1 .6.6" clip-rule="evenodd"/></svg>
